X:1021
T:Baille de Panderu (CT 471)
R:Panderu
C:Tradicional
S:Música Tradicional Asturiana, (C) Tello & Tito. Asturies, 2001.
S:http://pagina.de/MusTradAst <telloytito@asturies.org>
N:Canción de baile de pandero, transcrita en Luiña, ayuntamiento de Ibias.
O:Luiña (Ibias)
A:Asturies
Z:Cancioneru de Torner 471
M:3/8
L:1/8
Q:3/8=88
W:Señores, pa cantar
W:llicencia-yos pediré,
W:porque nun digan mañana
W:qu'ensin llicencia canté.
K:C
|Gcc|BAB|c2B|ddc|B2A|G2z|
GBB|BAB|G2F-|F2z|
FBB|BAB|(c2 B/4c/4B/4A/4|G3-)|G2z||


